Assets/Game of Thrones (Kings Landing) - Standard.cube
# Created by Benjamin (IWLTBAP): https://luts.iwltbap.com
# Copyright: (C) Copyright 2019 Triune Films and IWLTBAP SAS
# Cannot be resold, shared or otherwise redistributed
TITLE "Triune Films Fantasy LUTs (Rec.709, sRGB, DCI-P3)"
LUT_3D_SIZE 33
0.001526 0.000122 0.000122
0.006653 0.000549 0.000549
0.013306 0.001068 0.001068
0.025299 0.002014 0.002014
0.029785 0.002350 0.002380
0.041870 0.004089 0.003326
0.054443 0.006683 0.004517
0.070343 0.011810 0.006256
0.089478 0.016174 0.008606
0.111694 0.019745 0.011383
0.133881 0.024139 0.014343
0.156494 0.028595 0.017395
0.180847 0.032471 0.020630
0.204285 0.036804 0.023804
0.229065 0.041046 0.027527
0.254883 0.044830 0.031982
0.280731 0.050659 0.037750
0.308014 0.055573 0.043915
0.334564 0.061890 0.050049
0.362946 0.067535 0.056519
0.391968 0.073395 0.063171
0.420715 0.080353 0.069824
0.450226 0.087677 0.076660
0.480774 0.094818 0.083740
0.513184 0.100952 0.091125
0.544159 0.109650 0.098419
0.577423 0.116669 0.106049
0.610596 0.124756 0.113708
0.645355 0.131958 0.121735
0.679382 0.140717 0.129639
0.715088 0.148346 0.137848
0.750427 0.157104 0.146057
0.786896 0.165039 0.154480
0.012634 0.009308 0.001648
0.018219 0.011261 0.002197
0.028961 0.012329 0.003052
0.033691 0.013580 0.003479
0.041077 0.015442 0.004120
0.055634 0.017395 0.005402
0.069031 0.020660 0.006805
0.087189 0.024414 0.009003
0.105774 0.028992 0.011414
0.126801 0.033203 0.014160
0.147827 0.037964 0.017090
0.171295 0.041687 0.020233
0.194366 0.045929 0.023376
0.219543 0.048767 0.026917
0.244049 0.052979 0.030914
0.269196 0.058014 0.036011
0.294922 0.063568 0.041809
0.322083 0.068481 0.047943
0.349243 0.074432 0.054169
0.375641 0.081818 0.060303
0.404877 0.087524 0.066956
0.433929 0.094269 0.073639
0.463348 0.101593 0.080414
0.494995 0.107544 0.087585
0.526031 0.115265 0.094788
0.557922 0.122772 0.102142
0.590118 0.130768 0.109589
0.623535 0.138275 0.117279
0.657990 0.145569 0.125183
0.691742 0.154144 0.133026
0.727234 0.161621 0.141174
0.762360 0.170044 0.149292
0.798004 0.178314 0.157532
0.026062 0.020111 0.003418
0.030457 0.022858 0.003967
0.037567 0.025513 0.004639
0.049957 0.026215 0.005615
0.055817 0.028046 0.006226
0.069153 0.030609 0.007599
0.084839 0.033936 0.009521
0.101105 0.038666 0.011627
0.120850 0.042786 0.014252
0.142120 0.046600 0.017120
0.163147 0.051422 0.020111
0.185425 0.055664 0.023193
0.208588 0.059326 0.026520
0.233215 0.062805 0.030212
0.257660 0.067078 0.034576
0.283081 0.072388 0.040131
0.309509 0.077179 0.046051
0.335907 0.082916 0.052063
0.361664 0.090149 0.057983
0.389618 0.096222 0.064362
0.418121 0.102814 0.070892
0.447632 0.109070 0.077576
0.477386 0.116150 0.084442
0.508301 0.122833 0.091461
0.539551 0.130280 0.098694
0.571442 0.137665 0.106018
0.604248 0.144867 0.113525
0.637390 0.152435 0.121155
0.670807 0.160309 0.128815
0.704437 0.168640 0.136597
0.739441 0.176178 0.144623
0.774902 0.183899 0.152771
0.809814 0.192352 0.160828
0.038879 0.031952 0.006134
0.043182 0.034851 0.007141
0.049377 0.038025 0.006897
0.057281 0.041077 0.007324
0.071228 0.042206 0.008759
0.082581 0.045502 0.010193
0.098511 0.049316 0.012238
0.116852 0.053345 0.014709
0.136353 0.057678 0.017456
0.156982 0.062042 0.020386
0.178619 0.066223 0.023468
0.201324 0.070099 0.026794
0.223877 0.074463 0.030243
0.248322 0.078186 0.034180
0.272491 0.083405 0.039124
0.297882 0.088409 0.044800
0.323181 0.094635 0.050537
0.350311 0.099731 0.056519
0.376343 0.106781 0.062531
0.404846 0.112488 0.068970
0.433044 0.119354 0.075378
0.462463 0.125763 0.082062
0.492340 0.132477 0.088867
0.522156 0.140045 0.095734
0.553864 0.146759 0.102966
0.586212 0.153381 0.110260
0.618225 0.161011 0.117615
0.650360 0.169220 0.125061
0.683411 0.177155 0.132660
0.717346 0.184631 0.140442
0.751740 0.192200 0.148315
0.786621 0.199951 0.156311
0.821716 0.207581 0.164337
0.049255 0.046570 0.012970
0.053558 0.049438 0.014069
0.060577 0.052765 0.013947
0.069000 0.055756 0.011749
0.081360 0.058838 0.011261
0.095184 0.062469 0.013092
0.113892 0.066925 0.015717
0.132782 0.071411 0.018463
0.152740 0.075378 0.021393
0.173248 0.080017 0.024506
0.196106 0.083923 0.027924
0.218323 0.088287 0.031281
0.241119 0.092743 0.034943
0.264893 0.097168 0.039307
0.289062 0.102631 0.044678
0.313416 0.108215 0.050079
0.339233 0.113770 0.055786
0.365662 0.119507 0.061676
0.392822 0.125427 0.067749
0.420624 0.131531 0.074005
0.448669 0.138306 0.080383
0.477783 0.144775 0.086945
0.506531 0.152374 0.093567
0.537354 0.158844 0.100494
0.568329 0.165771 0.107544
0.599823 0.172760 0.114685
0.631805 0.179932 0.122009
0.664185 0.187256 0.129364
0.697083 0.194855 0.136871
0.730469 0.202271 0.144501
0.764252 0.209778 0.152222
0.798492 0.217468 0.160065
0.832977 0.225067 0.167938
0.059784 0.063263 0.021576
0.064301 0.066956 0.023010
0.071167 0.070374 0.023010
0.081299 0.073669 0.021454
0.092865 0.076996 0.016663
0.112030 0.079651 0.016998
0.127533 0.086090 0.019684
0.149078 0.091553 0.023102
0.170502 0.096893 0.026611
0.192902 0.101227 0.030090
0.214417 0.105957 0.033386
0.237274 0.110168 0.036865
0.260345 0.114532 0.040894
0.283356 0.119934 0.045868
0.307068 0.125458 0.051056
0.331665 0.130829 0.056366
0.357239 0.136230 0.061981
0.382599 0.142181 0.067627
0.410095 0.147461 0.073608
0.437378 0.153625 0.079712
0.465118 0.159943 0.085907
0.493225 0.166840 0.092255
0.522369 0.173584 0.098877
0.552246 0.180237 0.105591
0.582703 0.187134 0.112457
0.613678 0.194214 0.119446
0.645325 0.201263 0.126648
0.677216 0.208435 0.133881
0.710815 0.214508 0.141388
0.743622 0.221924 0.148865
0.776886 0.229218 0.156433
0.810516 0.236725 0.164062
0.844360 0.244171 0.171783
0.070770 0.083649 0.033600
0.075226 0.087616 0.035278
0.082825 0.091492 0.035309
0.093628 0.094696 0.033447
0.107605 0.097992 0.029938
0.122864 0.101471 0.023254
0.145691 0.104980 0.024750
0.164673 0.113007 0.028595
0.187988 0.120148 0.032654
0.210999 0.126221 0.036316
0.234131 0.131439 0.039856
0.256287 0.136536 0.043671
0.279541 0.141418 0.048340
0.302826 0.146545 0.053284
0.326263 0.151794 0.058228
0.351013 0.156921 0.063538
0.375824 0.162140 0.068878
0.401672 0.167572 0.074463
0.427368 0.173248 0.080078
0.454254 0.179169 0.085968
0.482056 0.184723 0.092041
0.509735 0.191223 0.098267
0.538513 0.197418 0.104614
0.568420 0.203400 0.111237
0.597809 0.210236 0.117859
0.628143 0.217102 0.124664
0.659698 0.223419 0.131683
0.691467 0.230103 0.138855
0.723358 0.236969 0.146027
0.755859 0.243958 0.153351
0.788757 0.251007 0.160767
0.822815 0.257416 0.168365
0.855927 0.264801 0.175903
0.082092 0.106964 0.047394
0.087067 0.111572 0.049042
0.095734 0.115601 0.049774
0.107574 0.119171 0.048676
0.122498 0.122223 0.045258
0.140503 0.125549 0.040131
0.159332 0.129486 0.032990
0.183258 0.134613 0.034760
0.203857 0.144135 0.038757
0.228058 0.152374 0.042938
0.252167 0.159668 0.047150
0.276184 0.165863 0.051880
0.299133 0.171234 0.056580
0.322571 0.176178 0.061401
0.346100 0.181274 0.066284
0.369965 0.186249 0.071289
0.394806 0.191132 0.076447
0.420074 0.196136 0.081787
0.445404 0.201660 0.087250
0.471924 0.206970 0.092896
0.499023 0.212341 0.098785
0.526917 0.217773 0.104767
0.555267 0.223572 0.110992
0.583557 0.229889 0.117249
0.612701 0.236084 0.123657
0.643158 0.241882 0.130341
0.673798 0.248077 0.137115
0.704651 0.254547 0.143982
0.735870 0.261230 0.150970
0.768341 0.267242 0.158142
0.800842 0.273743 0.165405
0.833618 0.280548 0.172729
0.866821 0.287170 0.180176
0.094391 0.132904 0.062134
0.100708 0.137878 0.064301
0.110321 0.142609 0.065125
0.123199 0.146545 0.064453
0.139038 0.149780 0.061890
0.157623 0.153046 0.057556
0.177704 0.157013 0.051575
0.199341 0.161194 0.044220
0.223480 0.167877 0.045502
0.244415 0.178802 0.049866
0.269165 0.188324 0.054962
0.293579 0.196381 0.060181
0.318024 0.203156 0.065308
0.341949 0.208496 0.070099
0.365295 0.213318 0.074829
0.389008 0.217987 0.079651
0.413452 0.222595 0.084625
0.438446 0.227112 0.089691
0.463593 0.232025 0.094940
0.489777 0.236725 0.100403
0.516205 0.241852 0.105957
0.543213 0.247101 0.111694
0.570892 0.252441 0.117615
0.599121 0.257904 0.123688
0.628479 0.263153 0.129974
0.657806 0.268890 0.136353
0.687592 0.274719 0.142853
0.718292 0.280518 0.149536
0.748810 0.286804 0.156311
0.780792 0.292389 0.163269
0.812500 0.298645 0.170288
0.844513 0.305054 0.177399
0.877686 0.310944 0.184692
0.109009 0.161621 0.077576
0.116058 0.167267 0.079773
0.126312 0.172424 0.080719
0.139771 0.176788 0.080414
0.156464 0.180481 0.078491
0.175903 0.183807 0.074860
0.197021 0.187439 0.070007
0.218140 0.192078 0.064240
0.239838 0.197296 0.058167
0.265320 0.204895 0.057648
0.287415 0.216492 0.063171
0.310303 0.226837 0.068634
0.334717 0.235138 0.073914
0.359253 0.241882 0.078949
0.383667 0.247467 0.083862
0.407471 0.251892 0.088470
0.431641 0.255951 0.093201
0.456299 0.260010 0.098053
0.481598 0.264160 0.103088
0.506622 0.268799 0.108215
0.532959 0.273163 0.113525
0.559814 0.277679 0.119080
0.587158 0.282379 0.124725
0.614777 0.287384 0.130554
0.643158 0.292419 0.136536
0.672119 0.297546 0.142700
0.701874 0.302612 0.149017
0.731201 0.308380 0.155396
0.761932 0.313690 0.161987
0.792969 0.319214 0.168701
0.824219 0.324829 0.175507
0.856506 0.330261 0.182495
0.888184 0.336395 0.189484
0.124603 0.193451 0.091553
0.133057 0.200012 0.093353
0.144073 0.205872 0.094513
0.158264 0.210602 0.094391
0.175507 0.214447 0.092957
0.195465 0.217926 0.090546
0.217133 0.221283 0.086700
0.239319 0.225586 0.082733
0.260925 0.230682 0.078735
0.280273 0.237732 0.074829
0.306396 0.245697 0.073853
0.329773 0.256683 0.077576
0.352020 0.266815 0.082733
0.375488 0.274933 0.087769
0.399750 0.281372 0.092682
0.424042 0.286743 0.097473
0.448547 0.290863 0.102081
0.473022 0.294464 0.106720
0.497803 0.298157 0.111450
0.523163 0.301849 0.116364
0.548950 0.305786 0.121460
0.575287 0.309875 0.126709
0.601990 0.314117 0.132080
0.629822 0.318207 0.137695
0.657684 0.322723 0.143433
0.686127 0.327332 0.149323
0.715088 0.332092 0.155396
0.744659 0.336914 0.161621
0.774811 0.341736 0.167938
0.805328 0.346710 0.174438
0.835907 0.352112 0.181000
0.867462 0.357269 0.187744
0.898773 0.362885 0.194550
0.141754 0.228271 0.104218
0.151062 0.235535 0.106201
0.163086 0.241791 0.107178
0.177856 0.247009 0.107208
0.195648 0.251099 0.106232
0.216248 0.254547 0.104156
0.238495 0.257874 0.101349
0.261169 0.261810 0.098389
0.283661 0.266663 0.095886
0.305145 0.272400 0.093536
0.324677 0.279541 0.091553
0.346344 0.288635 0.090698
0.370300 0.298401 0.092773
0.393036 0.307343 0.096802
0.415527 0.314941 0.101593
0.439026 0.320892 0.106262
0.463318 0.325775 0.110901
0.488220 0.329712 0.115509
0.513092 0.333038 0.120087
0.538208 0.336182 0.124725
0.563660 0.339508 0.129517
0.589783 0.342957 0.134521
0.616302 0.346588 0.139679
0.643524 0.350281 0.145020
0.670959 0.354248 0.150482
0.699310 0.358124 0.156158
0.727936 0.362335 0.161987
0.756958 0.366791 0.167938
0.786438 0.371277 0.174072
0.816559 0.375763 0.180298
0.847168 0.380432 0.186707
0.877991 0.385284 0.193207
0.909241 0.390228 0.199860
0.160187 0.265564 0.116516
0.170563 0.273315 0.118835
0.183380 0.280334 0.120361
0.198792 0.285797 0.120544
0.217041 0.290039 0.119995
0.237946 0.293396 0.118561
0.260620 0.296600 0.116425
0.283722 0.300323 0.114105
0.306427 0.304688 0.111847
0.328583 0.310059 0.110199
0.349518 0.315887 0.108826
0.368866 0.322754 0.107391
0.386444 0.332092 0.106201
0.409088 0.340729 0.107544
0.431885 0.348175 0.110718
0.454712 0.354462 0.115234
0.477692 0.359802 0.119659
0.501465 0.364349 0.124084
0.526611 0.367920 0.128662
0.552002 0.370941 0.133209
0.577362 0.373749 0.137756
0.603149 0.376678 0.142487
0.629486 0.379730 0.147400
0.656372 0.382904 0.152496
0.683868 0.386230 0.157745
0.711548 0.389801 0.163177
0.739655 0.393555 0.168732
0.768738 0.397278 0.174469
0.797852 0.401367 0.180389
0.827423 0.405518 0.186401
0.857452 0.409760 0.192566
0.888031 0.414154 0.198883
0.919159 0.418518 0.205322
0.180389 0.304718 0.129639
0.191650 0.313019 0.131927
0.205170 0.320435 0.133698
0.221039 0.326355 0.134369
0.239563 0.330872 0.134216
0.260681 0.334167 0.133362
0.283417 0.337067 0.131805
0.306580 0.340424 0.130035
0.329437 0.344421 0.128510
0.351624 0.349152 0.126740
0.372894 0.354645 0.125977
0.392975 0.360352 0.124817
0.411438 0.366608 0.123505
0.428070 0.374695 0.122223
0.445557 0.383057 0.121948
0.468872 0.388611 0.124603
0.491760 0.393646 0.128540
0.515198 0.398071 0.132812
0.539215 0.401917 0.137115
0.563873 0.405365 0.141479
0.589691 0.408173 0.146027
0.615479 0.410706 0.150513
0.641571 0.413239 0.155212
0.668304 0.415924 0.160065
0.695465 0.418823 0.165100
0.722900 0.421936 0.170258
0.751068 0.425018 0.175629
0.779388 0.428528 0.181152
0.808655 0.431915 0.186859
0.837830 0.435730 0.192657
0.867798 0.439392 0.198639
0.898071 0.443329 0.204773
0.928711 0.447357 0.210968
0.202393 0.345367 0.142639
0.214386 0.354156 0.145325
0.228394 0.361938 0.147430
0.244568 0.368134 0.148499
0.263153 0.372711 0.148865
0.284180 0.376068 0.148407
0.306793 0.378754 0.147430
0.329834 0.381775 0.146149
0.352631 0.385284 0.145020
0.374695 0.389526 0.144165
0.395691 0.394348 0.143158
0.415771 0.399567 0.142670
0.434967 0.404663 0.141602
0.452393 0.410187 0.140198
0.467926 0.416626 0.138489
0.484039 0.423309 0.137268
0.503998 0.428436 0.138062
0.527283 0.432190 0.141510
0.550934 0.435669 0.145599
0.575348 0.438812 0.149750
0.599976 0.441956 0.154053
0.626251 0.444580 0.158539
0.652557 0.446899 0.163086
0.679016 0.449188 0.167694
0.705902 0.451660 0.172485
0.733368 0.454254 0.177460
0.761322 0.457001 0.182617
0.789734 0.459839 0.187927
0.818329 0.463043 0.193390
0.847626 0.466248 0.199036
0.877197 0.469666 0.204803
0.907196 0.473236 0.210724
0.937408 0.476929 0.216766
0.226501 0.386810 0.155792
0.239014 0.395966 0.158783
0.253357 0.404114 0.161346
0.269531 0.410583 0.163055
0.287872 0.415405 0.163849
0.308411 0.418610 0.163879
0.330444 0.421112 0.163483
0.353180 0.423645 0.162933
0.375641 0.426666 0.162170
0.397491 0.430359 0.161621
0.418121 0.434601 0.161163
0.437927 0.439117 0.160400
0.456970 0.443787 0.159943
0.475128 0.448120 0.158966
0.491394 0.452667 0.157379
0.505829 0.457581 0.154846
0.521118 0.462646 0.152954
0.539520 0.466797 0.152435
0.561188 0.469971 0.154419
0.585388 0.472412 0.158020
0.610229 0.474915 0.162079
0.635620 0.477539 0.166351
0.661743 0.480011 0.170746
0.688477 0.482300 0.175293
0.715454 0.484436 0.179932
0.742767 0.486664 0.184692
0.770508 0.489075 0.189667
0.798737 0.491638 0.194763
0.827393 0.494293 0.200043
0.856537 0.497131 0.205505
0.885803 0.500183 0.211060
0.915619 0.503418 0.216797
0.945526 0.506805 0.222656
0.252319 0.428436 0.169281
0.265228 0.437897 0.172760
0.279541 0.446533 0.175873
0.295380 0.453186 0.178131
0.313263 0.458130 0.179413
0.333252 0.461334 0.180054
0.354492 0.463531 0.180023
0.376465 0.465607 0.179718
0.398407 0.468140 0.179535
0.419800 0.471222 0.179382
0.440155 0.474823 0.179260
0.459595 0.478699 0.178955
0.478119 0.482727 0.178467
0.496155 0.486694 0.177795
0.513428 0.490295 0.176819
0.528595 0.493744 0.174683
0.542206 0.497345 0.171661
0.556915 0.500977 0.168915
0.573669 0.504303 0.167389
0.595184 0.506470 0.167725
0.619019 0.508362 0.170227
0.644226 0.510376 0.174164
0.670044 0.512573 0.178375
0.696625 0.514801 0.182739
0.723785 0.517059 0.187286
0.751282 0.519073 0.191956
0.779022 0.521179 0.196747
0.807068 0.523376 0.201691
0.835602 0.525757 0.206787
0.864441 0.528320 0.212006
0.893677 0.531006 0.217407
0.923370 0.533875 0.222992
0.953125 0.536926 0.228638
0.279602 0.469849 0.183380
0.292511 0.479645 0.187317
0.306610 0.488464 0.190918
0.321960 0.495514 0.193878
0.339081 0.500549 0.195740
0.358246 0.503754 0.196808
0.378632 0.505768 0.197021
0.399689 0.507355 0.197266
0.420807 0.509216 0.197266
0.441589 0.511627 0.197479
0.461517 0.514618 0.197571
0.480530 0.517975 0.197693
0.498779 0.521454 0.197296
0.516327 0.524872 0.196869
0.533447 0.528046 0.195923
0.549866 0.530823 0.194763
0.564209 0.533386 0.192230
0.577179 0.535797 0.188660
0.591461 0.538177 0.185333
0.608337 0.540283 0.182861
0.628082 0.542297 0.181610
0.651947 0.543701 0.182770
0.677582 0.545166 0.186035
0.703918 0.546997 0.190216
0.730743 0.549072 0.194580
0.758362 0.551117 0.199127
0.786560 0.553162 0.203857
0.814636 0.555115 0.208618
0.843048 0.557281 0.213531
0.871857 0.559509 0.218628
0.900940 0.561951 0.223846
0.930481 0.564484 0.229248
0.960144 0.567261 0.234741
0.307831 0.510742 0.197998
0.320374 0.520782 0.202545
0.334015 0.529816 0.206909
0.348755 0.537079 0.210266
0.365082 0.542297 0.212708
0.383148 0.545471 0.214142
0.402557 0.547272 0.214874
0.422638 0.548462 0.215393
0.442841 0.549683 0.215546
0.462830 0.551392 0.215973
0.482178 0.553802 0.216309
0.500763 0.556519 0.216431
0.518707 0.559479 0.216461
0.535919 0.562469 0.216248
0.552643 0.565277 0.215454
0.569000 0.567657 0.214386
0.584717 0.569794 0.213013
0.598572 0.571594 0.210083
0.611023 0.573029 0.205841
0.624969 0.574341 0.201843
0.641876 0.575653 0.198792
0.661438 0.577118 0.196808
0.684418 0.578369 0.196320
0.710388 0.579468 0.198212
0.737274 0.580933 0.201874
0.764648 0.582733 0.206238
0.792480 0.584717 0.210785
0.821198 0.586761 0.215546
0.849762 0.588715 0.220367
0.878448 0.590759 0.225281
0.907501 0.592926 0.230347
0.936890 0.595276 0.235565
0.966553 0.597687 0.240936
0.335999 0.550842 0.213715
0.348053 0.560852 0.218811
0.361145 0.570038 0.223724
0.375214 0.577484 0.227722
0.390656 0.582825 0.230652
0.407532 0.585999 0.232574
0.425720 0.587585 0.233612
0.444794 0.588409 0.234161
0.464142 0.589111 0.234497
0.483368 0.590118 0.234863
0.502014 0.591766 0.235382
0.520142 0.593994 0.235718
0.537628 0.596497 0.235901
0.554565 0.599121 0.235779
0.571014 0.601624 0.235382
0.587036 0.603821 0.234528
0.602936 0.605652 0.233368
0.618195 0.607208 0.231720
0.631531 0.608398 0.228210
0.643768 0.609070 0.223175
0.657715 0.609680 0.218384
0.674622 0.610321 0.214844
0.694397 0.611237 0.212585
0.716034 0.612640 0.210938
0.742767 0.613251 0.211853
0.770081 0.614502 0.214050
0.797974 0.616058 0.217773
0.826141 0.617920 0.222321
0.855164 0.619873 0.227081
0.884430 0.621857 0.231964
0.913422 0.623810 0.236877
0.942719 0.625946 0.241943
0.972229 0.628174 0.247131
0.363708 0.589722 0.230255
0.375305 0.599701 0.236053
0.387726 0.608917 0.241638
0.401001 0.616394 0.246124
0.415436 0.621826 0.249634
0.431183 0.625092 0.251953
0.448212 0.626526 0.253174
0.466187 0.626984 0.253723
0.484619 0.627258 0.254150
0.503052 0.627716 0.254395
0.521088 0.628723 0.254761
0.538666 0.630341 0.255249
0.555756 0.632385 0.255585
0.572357 0.634674 0.255646
0.588501 0.636902 0.255463
0.604279 0.638916 0.254944
0.619965 0.640717 0.253967
0.635529 0.642151 0.252777
0.650452 0.643280 0.250732
0.663483 0.643890 0.246674
0.675781 0.644073 0.240875
0.689819 0.644165 0.235168
0.706879 0.644440 0.230988
0.726868 0.644958 0.228241
0.749268 0.645813 0.226532
0.774719 0.646790 0.226105
0.802582 0.647705 0.227448
0.830933 0.649109 0.230042
0.859619 0.650818 0.233765
0.888763 0.652710 0.238495
0.918488 0.654663 0.243408
0.947998 0.656647 0.248383
0.977356 0.658722 0.253418
0.390533 0.627319 0.247894
0.401520 0.637085 0.254150
0.413239 0.646240 0.260284
0.425629 0.653717 0.265472
0.439148 0.659210 0.269470
0.453888 0.662506 0.272095
0.469849 0.663910 0.273438
0.486725 0.664154 0.274109
0.504242 0.663971 0.274323
0.521881 0.664001 0.274506
0.539337 0.664490 0.274780
0.556396 0.665588 0.275208
0.573029 0.667206 0.275604
0.589294 0.669098 0.275787
0.605164 0.671112 0.275757
0.620728 0.673035 0.275421
0.636200 0.674683 0.274811
0.651611 0.676117 0.273865
0.666992 0.677246 0.272614
0.681641 0.677979 0.270172
0.694672 0.678345 0.265564
0.707153 0.678192 0.258972
0.721466 0.677979 0.252350
0.738770 0.677948 0.247162
0.759094 0.678223 0.243683
0.781830 0.678894 0.241699
0.806702 0.679901 0.240692
0.834961 0.680664 0.241547
0.863586 0.681915 0.242859
0.892731 0.683472 0.245483
0.921997 0.685333 0.249847
0.951996 0.687225 0.254761
0.979065 0.689026 0.259277
0.416138 0.663300 0.266357
0.426544 0.672882 0.273224
0.437531 0.681824 0.279755
0.449036 0.689240 0.285583
0.461578 0.694824 0.290009
0.475342 0.698181 0.293030
0.490295 0.699554 0.294556
0.506226 0.699677 0.295197
0.522827 0.699249 0.295319
0.539825 0.698822 0.295227
0.556610 0.698914 0.295288
0.573181 0.699585 0.295563
0.589417 0.700806 0.295959
0.605316 0.702362 0.296204
0.620911 0.704102 0.296295
0.636292 0.705902 0.296173
0.651581 0.707550 0.295776
0.666809 0.709045 0.295105
0.682190 0.710205 0.294098
0.697601 0.711121 0.292938
0.712128 0.711609 0.290192
0.725281 0.711761 0.284912
0.738129 0.711548 0.277435
0.752808 0.711151 0.269806
0.770508 0.710999 0.263611
0.791138 0.711151 0.259247
0.814148 0.711700 0.256561
0.839294 0.712585 0.255371
0.867157 0.713470 0.255554
0.896027 0.714569 0.256439
0.925385 0.716003 0.257721
0.955048 0.717743 0.261139
0.980682 0.719360 0.265289
0.440247 0.697662 0.285675
0.449951 0.706848 0.292969
0.460236 0.715546 0.300140
0.470947 0.722870 0.306396
0.482605 0.728424 0.311279
0.495270 0.731934 0.314697
0.509399 0.733368 0.316467
0.524475 0.733459 0.317047
0.540314 0.732849 0.316956
0.556610 0.732147 0.316528
0.572845 0.731842 0.316376
0.589020 0.732147 0.316467
0.604828 0.733032 0.316620
0.620422 0.734314 0.316956
0.635803 0.735901 0.317108
0.650940 0.737549 0.317169
0.666107 0.739166 0.316986
0.681213 0.740692 0.316559
0.696411 0.742004 0.315979
0.711884 0.743011 0.315155
0.727417 0.743835 0.313965
0.742035 0.744293 0.310913
0.755463 0.744446 0.304962
0.768768 0.744141 0.296570
0.784058 0.743805 0.287720
0.802155 0.743652 0.280457
0.823059 0.743805 0.275116
0.846313 0.744293 0.271637
0.871643 0.745087 0.269653
0.898987 0.746124 0.269226
0.928070 0.747070 0.270111
0.957642 0.748444 0.271332
0.982422 0.749725 0.271667
0.462463 0.729919 0.305634
0.471436 0.738739 0.313477
0.480988 0.747101 0.321045
0.490997 0.754303 0.327728
0.501740 0.759857 0.333160
0.513641 0.763489 0.336853
0.526764 0.765015 0.338776
0.541107 0.765198 0.339355
0.556305 0.764526 0.339050
0.572021 0.763672 0.338440
0.587860 0.763092 0.337891
0.603607 0.763123 0.337646
0.619141 0.763794 0.337769
0.634491 0.764832 0.337982
0.649597 0.766235 0.338226
0.664581 0.767761 0.338409
0.679565 0.769379 0.338440
0.694672 0.770935 0.338257
0.709839 0.772339 0.337921
0.725281 0.773590 0.337494
0.740906 0.774628 0.336945
0.756683 0.775452 0.335999
0.771484 0.775909 0.332733
0.785248 0.776093 0.326050
0.799255 0.776031 0.316559
0.815125 0.775909 0.306458
0.833679 0.775879 0.297943
0.854828 0.776123 0.291473
0.878265 0.776672 0.286957
0.903564 0.777496 0.284210
0.930664 0.778534 0.283142
0.959717 0.779510 0.283539
0.984253 0.780518 0.283936
0.482910 0.760437 0.326172
0.491272 0.768799 0.334290
0.500061 0.776794 0.342255
0.509308 0.783752 0.349335
0.519348 0.789337 0.355164
0.530426 0.792999 0.359253
0.542755 0.794769 0.361420
0.556396 0.795135 0.362000
0.570984 0.794464 0.361572
0.586304 0.793488 0.360718
0.601746 0.792786 0.359833
0.617188 0.792603 0.359375
0.632477 0.792969 0.359192
0.647552 0.793884 0.359283
0.662506 0.795166 0.359589
0.677399 0.796661 0.359833
0.692261 0.798248 0.360077
0.707306 0.799866 0.360138
0.722473 0.801422 0.360107
0.737823 0.802856 0.359985
0.753479 0.804108 0.359894
0.769440 0.805237 0.359741
0.785553 0.806122 0.359131
0.800629 0.806671 0.355560
0.815033 0.807098 0.348083
0.829681 0.807343 0.337494
0.846100 0.807465 0.325989
0.864960 0.807709 0.316193
0.886292 0.808167 0.308411
0.909698 0.808838 0.302704
0.934998 0.809753 0.299042
0.962128 0.810791 0.297272
0.986206 0.811676 0.296326
0.501617 0.789154 0.346924
0.509430 0.797058 0.355225
0.517578 0.804657 0.363525
0.526093 0.811401 0.370941
0.535400 0.816833 0.377136
0.545807 0.820679 0.381592
0.557465 0.822571 0.384064
0.570435 0.823059 0.384827
0.584534 0.822632 0.384338
0.599426 0.821625 0.383179
0.614624 0.820831 0.382050
0.629761 0.820496 0.381287
0.644836 0.820740 0.380920
0.659790 0.821564 0.380920
0.674591 0.822662 0.381042
0.689362 0.824158 0.381439
0.704254 0.825806 0.381805
0.719177 0.827454 0.382172
0.734375 0.829193 0.382446
0.749695 0.830780 0.382751
0.765350 0.832275 0.383057
