Assets/Game of Thrones (Kings Landing) - Standard.cube
# Created by Benjamin (IWLTBAP): https://luts.iwltbap.com
# Copyright: (C) Copyright 2019 Triune Films and IWLTBAP SAS
# Cannot be resold, shared or otherwise redistributed
TITLE "Triune Films Fantasy LUTs (Rec.709, sRGB, DCI-P3)"
LUT_3D_SIZE 9
0.001526 0.000122 0.000122
0.029785 0.002350 0.002380
0.089478 0.016174 0.008606
0.180847 0.032471 0.020630
0.280731 0.050659 0.037750
0.391968 0.073395 0.063171
0.513184 0.100952 0.091125
0.645355 0.131958 0.121735
0.786896 0.165039 0.154480
0.049255 0.046570 0.012970
0.081360 0.058838 0.011261
0.152740 0.075378 0.021393
0.241119 0.092743 0.034943
0.339233 0.113770 0.055786
0.448669 0.138306 0.080383
0.568329 0.165771 0.107544
0.697083 0.194855 0.136871
0.832977 0.225067 0.167938
0.094391 0.132904 0.062134
0.139038 0.149780 0.061890
0.223480 0.167877 0.045502
0.318024 0.203156 0.065308
0.413452 0.222595 0.084625
0.516205 0.241852 0.105957
0.628479 0.263153 0.129974
0.748810 0.286804 0.156311
0.877686 0.310944 0.184692
0.160187 0.265564 0.116516
0.217041 0.290039 0.119995
0.306427 0.304688 0.111847
0.386444 0.332092 0.106201
0.477692 0.359802 0.119659
0.577362 0.373749 0.137756
0.683868 0.386230 0.157745
0.797852 0.401367 0.180389
0.919159 0.418518 0.205322
0.252319 0.428436 0.169281
0.313263 0.458130 0.179413
0.398407 0.468140 0.179535
0.478119 0.482727 0.178467
0.542206 0.497345 0.171661
0.619019 0.508362 0.170227
0.723785 0.517059 0.187286
0.835602 0.525757 0.206787
0.953125 0.536926 0.228638
0.363708 0.589722 0.230255
0.415436 0.621826 0.249634
0.484619 0.627258 0.254150
0.555756 0.632385 0.255585
0.619965 0.640717 0.253967
0.675781 0.644073 0.240875
0.749268 0.645813 0.226532
0.859619 0.650818 0.233765
0.977356 0.658722 0.253418
0.462463 0.729919 0.305634
0.501740 0.759857 0.333160
0.556305 0.764526 0.339050
0.619141 0.763794 0.337769
0.679565 0.769379 0.338440
0.740906 0.774628 0.336945
0.799255 0.776031 0.316559
0.878265 0.776672 0.286957
0.984253 0.780518 0.283936
0.533966 0.841431 0.388214
0.563660 0.866272 0.420288
0.608551 0.873047 0.429626
0.667236 0.871643 0.424744
0.726044 0.876526 0.425903
0.787048 0.884277 0.430023
0.853668 0.890991 0.436432
0.918457 0.897369 0.407745
0.992493 0.903351 0.353119
0.585510 0.929657 0.468750
0.610779 0.945221 0.502411
0.650482 0.950562 0.517578
0.707214 0.955383 0.512665
0.765320 0.962006 0.515472
0.826263 0.971863 0.526581
0.891998 0.981781 0.545410
0.959442 0.990082 0.570160
1.000000 1.000000 0.526398
0.011108 0.003693 0.007751
0.037872 0.002960 0.020294
0.097534 0.008942 0.038330
0.184479 0.020081 0.050262
0.284576 0.037537 0.069275
0.395813 0.063324 0.095520
0.520233 0.092133 0.122864
0.653961 0.125763 0.152039
0.796356 0.163940 0.188385
0.038574 0.059021 0.055634
0.065430 0.071655 0.070740
0.165405 0.070465 0.059235
0.247070 0.077423 0.051544
0.342163 0.100616 0.076141
0.449585 0.126434 0.103394
0.567688 0.157379 0.133636
0.697479 0.188751 0.166443
0.834747 0.221130 0.200958
0.096710 0.144043 0.096649
0.127716 0.168243 0.109039
0.213074 0.186493 0.102722
0.330353 0.206665 0.110748
0.425812 0.219055 0.119049
0.525360 0.235718 0.134430
0.631927 0.259491 0.158905
0.752045 0.283661 0.188293
0.879883 0.309509 0.219543
0.153473 0.270874 0.142883
0.193329 0.305908 0.157074
0.295959 0.324738 0.153076
0.392242 0.345184 0.150726
0.485291 0.365448 0.167633
0.585052 0.375000 0.180847
0.690643 0.385925 0.193237
0.801605 0.401611 0.215179
0.921967 0.418884 0.242462
0.223663 0.429199 0.193024
0.276672 0.467224 0.210144
0.381042 0.483246 0.211182
0.478577 0.496765 0.211304
0.547363 0.507660 0.208893
0.622345 0.512878 0.216583
0.727997 0.518799 0.230957
0.838379 0.527130 0.244843
0.955566 0.537964 0.268463
0.328461 0.592682 0.253235
0.380035 0.627472 0.276672
0.467529 0.636597 0.281281
0.552948 0.642761 0.283325
0.622650 0.651337 0.280945
0.679810 0.652313 0.270447
0.751801 0.649292 0.267487
0.861725 0.652374 0.278931
0.977570 0.659698 0.295746
0.439087 0.734955 0.330841
0.477905 0.764343 0.361481
0.543243 0.769867 0.367279
0.615509 0.770264 0.365723
0.680054 0.777100 0.364777
0.743866 0.783569 0.359314
0.803131 0.783539 0.343231
0.880585 0.780060 0.326019
0.984344 0.781830 0.328094
0.521301 0.845551 0.416718
0.550201 0.868591 0.450958
0.600555 0.874695 0.460022
0.664795 0.874359 0.454590
0.726135 0.880951 0.454468
0.788971 0.890656 0.454987
0.857361 0.899384 0.457031
0.922302 0.904846 0.436584
0.992767 0.907074 0.394989
0.580109 0.931458 0.498749
0.605408 0.943634 0.533173
0.647247 0.947205 0.548523
0.707916 0.953674 0.542877
0.767456 0.962982 0.545105
0.828857 0.974518 0.554688
0.895203 0.986298 0.570892
0.962738 0.996552 0.594940
1.000000 1.000000 0.564087
0.018311 0.015839 0.040131
0.024933 0.018341 0.071320
0.081757 0.007019 0.077484
0.168457 0.018005 0.093048
0.270935 0.034363 0.115356
0.383667 0.060516 0.145325
0.507935 0.089294 0.178253
0.644012 0.120880 0.211823
0.788727 0.154419 0.246796
0.029022 0.069275 0.092499
0.048431 0.082855 0.115845
0.126099 0.083008 0.127197
0.236420 0.065277 0.137543
0.334412 0.069305 0.146027
0.440430 0.097717 0.170135
0.558624 0.128387 0.197906
0.688293 0.161560 0.227081
0.827026 0.196686 0.256317
0.085083 0.156281 0.151154
0.102783 0.182678 0.176636
0.181427 0.202698 0.200195
0.320343 0.209625 0.201202
0.424347 0.216492 0.207306
0.524658 0.230682 0.221375
0.633698 0.250610 0.240723
0.752777 0.273621 0.262268
0.880005 0.297333 0.281891
0.152161 0.276581 0.207825
0.175079 0.317261 0.236969
0.267334 0.350647 0.252441
0.388641 0.362335 0.250488
0.488159 0.370728 0.261932
0.586700 0.376190 0.269897
0.692444 0.386169 0.282013
0.806335 0.399536 0.296570
0.927216 0.414825 0.309326
0.208191 0.425629 0.261627
0.240356 0.473267 0.295502
0.347382 0.507233 0.306488
0.472076 0.516815 0.304840
0.549377 0.518921 0.299133
0.623566 0.516571 0.303009
0.728760 0.520233 0.314423
0.841187 0.527557 0.326294
0.959442 0.537262 0.335968
0.278900 0.583435 0.318359
0.323029 0.625946 0.357361
0.431366 0.649261 0.363831
0.542542 0.654846 0.361755
0.620026 0.660767 0.357697
0.679596 0.659424 0.342590
0.751434 0.651581 0.340240
0.862671 0.653351 0.354187
0.977631 0.660156 0.366547
0.380646 0.727600 0.389343
0.422394 0.758850 0.431061
0.509247 0.770477 0.435516
0.602295 0.771973 0.429535
0.673462 0.779602 0.428040
0.739868 0.788361 0.417328
0.801453 0.788696 0.397003
0.880157 0.781860 0.386627
0.984375 0.782379 0.394104
0.479034 0.840149 0.470825
0.511688 0.861328 0.512054
0.573975 0.868225 0.519989
0.652710 0.868988 0.509674
0.718781 0.877563 0.509125
0.783203 0.890411 0.506592
0.853088 0.903107 0.500824
0.920532 0.909546 0.481201
0.992950 0.909210 0.450531
0.555664 0.924316 0.551788
0.584045 0.934204 0.590973
0.633057 0.937256 0.606567
0.700134 0.945099 0.595917
0.762726 0.956512 0.595856
0.824310 0.970673 0.603882
0.890503 0.985779 0.616486
0.959625 0.998627 0.638306
1.000000 1.000000 0.618988
0.029724 0.035248 0.096100
0.039032 0.044647 0.120819
0.058899 0.009399 0.136475
0.137909 0.014038 0.137512
0.240631 0.028198 0.153809
0.356323 0.054169 0.191833
0.482452 0.083405 0.231323
0.619476 0.115173 0.273499
0.766296 0.149200 0.314789
0.040039 0.085541 0.137970
0.049835 0.098175 0.162231
0.097290 0.103485 0.191620
0.191864 0.087158 0.196991
0.307373 0.064758 0.202240
0.413574 0.087158 0.229431
0.533112 0.119781 0.262573
0.663849 0.154022 0.299774
0.804108 0.189941 0.336578
0.082336 0.166565 0.201935
0.096191 0.188965 0.229584
0.145966 0.216339 0.264404
0.268616 0.221100 0.280151
0.396851 0.217072 0.291870
0.510925 0.221191 0.301117
0.619659 0.240112 0.321106
0.738892 0.263550 0.345825
0.866943 0.287567 0.370819
0.132568 0.280609 0.277496
0.146759 0.314911 0.311035
0.205627 0.359680 0.352173
0.350861 0.384918 0.383087
0.485748 0.377228 0.372528
0.582703 0.375824 0.370087
0.685883 0.384247 0.378601
0.799255 0.397980 0.392731
0.921173 0.413757 0.408875
0.202240 0.415863 0.354919
0.222076 0.459930 0.394165
0.297882 0.509949 0.426239
0.449921 0.533569 0.439575
0.548889 0.531281 0.428650
0.624512 0.519470 0.414093
0.726440 0.520630 0.415619
0.838623 0.527710 0.424316
0.958038 0.537903 0.435883
0.261627 0.564819 0.423462
0.290955 0.609192 0.467194
0.387848 0.649292 0.488892
0.528076 0.662476 0.490601
0.618683 0.664703 0.483978
0.677826 0.661407 0.462280
0.749298 0.651886 0.443146
0.861572 0.654053 0.449524
0.977692 0.661133 0.459564
0.339325 0.705902 0.491364
0.379150 0.739319 0.535553
0.475250 0.762634 0.547852
0.592865 0.769104 0.540894
0.672272 0.775452 0.536560
0.736359 0.784729 0.525726
0.797119 0.788116 0.498901
0.877747 0.782135 0.477753
0.984467 0.782990 0.481781
0.437439 0.819580 0.556946
0.473969 0.841614 0.599548
0.548859 0.854675 0.610901
0.645660 0.859253 0.599487
0.718414 0.868195 0.596069
0.781067 0.882843 0.593933
0.848236 0.899506 0.585999
0.916748 0.910278 0.562408
0.993011 0.910217 0.529449
0.526123 0.905914 0.620361
0.560089 0.917236 0.663391
0.621124 0.923553 0.681610
0.699066 0.933197 0.669647
0.764496 0.945374 0.666321
0.825256 0.961304 0.673431
0.888763 0.979309 0.685760
0.956696 0.995880 0.707214
1.000000 1.000000 0.694702
0.048096 0.055023 0.146301
0.054749 0.063995 0.166840
0.062195 0.068268 0.191101
0.114166 0.027008 0.214996
0.200012 0.022125 0.199371
0.311340 0.043732 0.217621
0.440460 0.073700 0.267975
0.580139 0.106049 0.322052
0.729523 0.140717 0.374878
0.060913 0.103058 0.186890
0.068573 0.114807 0.209137
0.078827 0.126312 0.240479
0.159454 0.126343 0.272339
0.262299 0.095917 0.264771
0.374420 0.082031 0.269318
0.492523 0.104431 0.306793
0.625305 0.140991 0.355774
0.768646 0.178772 0.402527
0.084534 0.181122 0.252655
0.093536 0.200134 0.278168
0.124603 0.227173 0.315674
0.223633 0.252106 0.357910
0.355103 0.234619 0.360626
0.470673 0.224304 0.363983
0.583038 0.235016 0.389038
0.710052 0.249420 0.418457
0.840729 0.273163 0.449463
0.136566 0.288025 0.331848
0.148163 0.315491 0.362183
0.180939 0.356384 0.405823
0.304718 0.403717 0.455353
0.455353 0.407471 0.466980
0.563904 0.389648 0.466858
0.672333 0.383209 0.471588
0.783539 0.392395 0.483246
0.905365 0.406677 0.500549
0.181458 0.413300 0.414337
0.195892 0.449432 0.449646
0.236877 0.495483 0.491058
0.383728 0.542725 0.535645
0.530579 0.558167 0.559326
0.630096 0.537323 0.532593
0.720703 0.525574 0.520874
0.828339 0.527771 0.524841
0.947510 0.536652 0.535675
0.231445 0.552612 0.505829
0.250916 0.593933 0.544556
0.332733 0.633026 0.575317
0.485382 0.663025 0.596405
0.612762 0.674591 0.601685
0.681274 0.671448 0.584106
0.749542 0.654541 0.553833
0.857025 0.654816 0.552368
0.975098 0.661346 0.559692
0.324036 0.685181 0.573303
0.355042 0.720581 0.611725
0.434906 0.749939 0.634979
0.571106 0.765747 0.643738
0.672882 0.774872 0.645233
0.739349 0.781769 0.636353
0.794586 0.784851 0.610168
0.872955 0.781525 0.579803
0.984558 0.783966 0.580841
0.410950 0.795929 0.634521
0.446686 0.822144 0.671082
0.522247 0.841705 0.690338
0.637970 0.851929 0.691650
0.723907 0.862061 0.691742
0.787170 0.874817 0.688934
0.847382 0.891052 0.681915
0.912598 0.905670 0.658508
0.992981 0.909576 0.622101
0.502991 0.882996 0.687317
0.540070 0.900085 0.726379
0.608734 0.912354 0.748291
0.701874 0.924561 0.747070
0.774719 0.937439 0.747467
0.834564 0.952515 0.752655
0.893250 0.970734 0.763123
0.955994 0.989227 0.781250
1.000000 1.000000 0.773163
0.063293 0.073425 0.194031
0.069611 0.082153 0.213715
0.076141 0.090027 0.236145
0.088135 0.082916 0.268951
0.181122 0.057465 0.283600
0.265045 0.032990 0.260010
0.379486 0.059509 0.282379
0.522736 0.092743 0.344238
0.675873 0.128265 0.415894
0.078461 0.123199 0.238525
0.085052 0.135101 0.259094
0.094452 0.149841 0.286987
0.141296 0.165283 0.330780
0.242950 0.152496 0.352417
0.333740 0.114044 0.328918
0.440735 0.105896 0.337280
0.573029 0.122711 0.386719
0.718292 0.161804 0.448700
0.097412 0.201355 0.304230
0.105682 0.219086 0.327789
0.116302 0.241211 0.359344
0.186096 0.279236 0.412659
0.326996 0.286987 0.448181
0.436493 0.253510 0.433380
0.537811 0.240448 0.436279
0.658722 0.248810 0.469940
0.792877 0.266479 0.512238
0.138428 0.302368 0.385406
0.152344 0.326935 0.413269
0.174225 0.358368 0.448914
0.256073 0.411835 0.506042
0.414612 0.443451 0.543091
0.540436 0.426575 0.542542
0.638123 0.404938 0.543793
0.746643 0.398804 0.560608
0.870758 0.403015 0.584900
0.187500 0.419159 0.466949
0.200409 0.450806 0.499542
0.223358 0.486206 0.535095
0.332397 0.541504 0.587585
0.499268 0.577393 0.619202
0.616333 0.580750 0.626587
0.702728 0.553253 0.622528
0.809906 0.535675 0.624878
0.927673 0.534973 0.631348
0.236450 0.550323 0.551758
0.253998 0.587433 0.587646
0.283875 0.618988 0.615570
0.404419 0.659454 0.652588
0.566956 0.686005 0.680115
0.673523 0.696533 0.697601
0.752960 0.676544 0.669708
0.846802 0.662567 0.658020
0.961212 0.661896 0.660828
0.295258 0.681427 0.633667
0.321320 0.717224 0.668884
0.371307 0.743713 0.693176
0.510437 0.763580 0.717682
0.649902 0.779327 0.727783
0.738953 0.790253 0.731110
0.796539 0.792145 0.715576
0.871765 0.783508 0.686584
0.984680 0.785706 0.684662
0.396545 0.786682 0.693054
0.429871 0.816956 0.727631
0.491638 0.838470 0.749329
0.609528 0.850922 0.759918
0.716736 0.863373 0.770050
0.791779 0.875763 0.774200
0.850555 0.887939 0.769348
0.909668 0.901398 0.751373
0.992950 0.909119 0.719574
0.483398 0.871796 0.741364
0.522583 0.895477 0.777435
0.591248 0.911255 0.800903
0.693298 0.922394 0.808746
0.779053 0.935944 0.818115
0.844421 0.950165 0.826050
0.900787 0.965759 0.834015
0.957397 0.983368 0.849182
1.000000 1.000000 0.850433
0.077148 0.091461 0.239838
0.084869 0.103180 0.264160
0.091919 0.113922 0.286133
0.101257 0.124451 0.317810
0.165649 0.118958 0.350220
0.258209 0.080139 0.348846
0.330902 0.048279 0.319672
0.447479 0.075287 0.349365
0.603027 0.111359 0.423157
0.096283 0.147644 0.292999
0.102844 0.160919 0.313232
0.111206 0.176361 0.338806
0.131866 0.200134 0.383209
0.229797 0.216431 0.428192
0.336304 0.179932 0.427673
0.404449 0.137451 0.392456
0.508118 0.131500 0.408508
0.654053 0.145233 0.470947
0.113647 0.225677 0.357513
0.118958 0.243378 0.380066
0.128113 0.262177 0.406433
0.167755 0.300171 0.457001
0.294434 0.338318 0.514740
0.433594 0.320190 0.529114
0.511108 0.279327 0.501831
0.603516 0.262665 0.509155
0.733246 0.267181 0.552979
0.148651 0.322174 0.438049
0.157928 0.345306 0.464600
0.173889 0.368042 0.491577
0.223419 0.414093 0.542511
0.358673 0.467407 0.598114
0.520142 0.474426 0.619141
0.613098 0.448761 0.610046
0.703308 0.426483 0.617371
0.820526 0.415985 0.644928
0.195526 0.432404 0.521179
0.208221 0.462494 0.553070
0.223663 0.489349 0.582001
0.294678 0.538788 0.631073
0.450317 0.585632 0.669891
0.589905 0.607849 0.687927
0.685791 0.598206 0.689392
0.772217 0.570221 0.695190
0.883057 0.551147 0.711334
0.243652 0.555695 0.603455
0.260193 0.590607 0.638275
0.277618 0.614349 0.661316
0.361542 0.654541 0.698242
0.526978 0.689514 0.727051
0.652679 0.711945 0.744598
0.739014 0.717072 0.752014
0.820648 0.691376 0.754425
0.934753 0.671722 0.760742
0.302612 0.682434 0.682159
0.325928 0.717621 0.716614
0.353394 0.738586 0.735229
0.439423 0.762268 0.755951
0.587830 0.784607 0.777893
0.705170 0.801208 0.797119
0.787720 0.810150 0.811615
0.866547 0.800110 0.793030
0.969055 0.791779 0.787445
0.373413 0.792480 0.747131
0.405975 0.824768 0.780762
0.449341 0.845673 0.801117
0.540741 0.858704 0.814789
0.673615 0.869385 0.834137
0.777496 0.881989 0.841522
0.848450 0.894104 0.845917
0.906769 0.904083 0.839020
0.990753 0.909607 0.820709
0.477264 0.876801 0.797424
0.511841 0.904694 0.833588
0.573456 0.922577 0.856415
0.672760 0.930878 0.861755
0.767731 0.941620 0.873230
0.843719 0.954498 0.886292
0.904999 0.967682 0.896729
0.959351 0.981995 0.909760
0.999969 0.999481 0.920654
0.091705 0.113037 0.285828
0.102051 0.130402 0.319000
0.109344 0.143616 0.341736
0.119110 0.161133 0.373291
0.161621 0.176361 0.417633
0.259277 0.159149 0.436707
0.341919 0.105927 0.417206
0.408203 0.071198 0.390991
0.517700 0.091553 0.420593
0.114655 0.176666 0.350342
0.121246 0.190948 0.371307
0.128815 0.207489 0.395569
0.140991 0.234100 0.435425
0.214630 0.269928 0.492340
0.343140 0.265900 0.523163
0.427795 0.211334 0.501251
0.480499 0.169403 0.464172
0.581512 0.161835 0.487030
0.133636 0.253357 0.413757
0.139740 0.270996 0.435577
0.146606 0.289062 0.459686
0.162689 0.321686 0.502960
0.256470 0.372925 0.567017
0.421326 0.391357 0.607697
0.526581 0.352875 0.601776
0.582489 0.311188 0.571503
0.670807 0.291840 0.584900
0.161926 0.345947 0.491150
0.171234 0.368927 0.517578
0.178772 0.387329 0.540283
0.209015 0.422058 0.580933
0.305298 0.478973 0.640869
0.484833 0.514923 0.678436
0.608490 0.501587 0.686554
0.677368 0.474518 0.673859
0.763977 0.452911 0.688141
0.204041 0.451965 0.576996
0.217560 0.481659 0.609100
0.228973 0.501862 0.632080
0.268524 0.538818 0.670929
0.390472 0.587677 0.713959
0.545135 0.624908 0.739502
0.669769 0.630096 0.749817
0.745819 0.614197 0.747894
0.831940 0.589722 0.763214
0.252380 0.567474 0.658386
0.268433 0.600952 0.692841
0.281342 0.620178 0.713318
0.339081 0.654541 0.746887
0.486847 0.692352 0.776733
0.620850 0.719635 0.792542
0.721130 0.735535 0.803040
0.799835 0.730194 0.807220
0.887207 0.705688 0.822296
0.310028 0.686279 0.733002
0.331879 0.720398 0.767303
0.350800 0.738495 0.784698
0.409943 0.761475 0.805481
0.549286 0.788116 0.827148
0.680023 0.807739 0.841400
0.772003 0.823639 0.853485
0.844757 0.828949 0.860901
0.932770 0.812927 0.874054
0.381195 0.796295 0.797302
0.412109 0.828796 0.830933
0.444031 0.849030 0.849976
0.503937 0.863220 0.861267
0.618835 0.878693 0.874969
0.735870 0.892761 0.889404
0.822052 0.905884 0.904602
0.893585 0.915070 0.918549
0.977692 0.916351 0.912476
0.466095 0.889526 0.850922
0.506683 0.917145 0.882416
0.559875 0.938416 0.904419
0.636749 0.949310 0.913544
0.729828 0.958252 0.926178
0.827362 0.965149 0.941528
0.900635 0.975372 0.948212
0.958405 0.986542 0.958557
0.999969 0.999298 0.970764
0.106628 0.137482 0.332977
0.120056 0.161804 0.377289
0.127625 0.177307 0.401062
0.137421 0.197937 0.431885
0.158356 0.226898 0.480347
0.264893 0.250366 0.529419
0.372833 0.198792 0.528961
0.429047 0.132111 0.492737
0.481689 0.103088 0.461182
0.132782 0.208466 0.409485
0.139740 0.224274 0.431702
0.146912 0.241669 0.455475
0.157410 0.267700 0.490753
0.197876 0.308441 0.546722
0.334106 0.346893 0.603851
0.462219 0.313416 0.615601
0.519196 0.247772 0.584076
0.558594 0.204254 0.544159
0.151978 0.283813 0.471863
0.158234 0.301788 0.493713
0.164856 0.320160 0.517609
0.175018 0.348541 0.554230
0.226227 0.395386 0.611786
0.387848 0.444794 0.669434
0.537140 0.435577 0.690186
0.609680 0.387634 0.676331
0.650848 0.345032 0.644836
0.175079 0.372253 0.545197
0.184631 0.395782 0.572357
0.191895 0.413696 0.594604
0.202667 0.440552 0.628265
0.262970 0.487366 0.680359
0.431854 0.542114 0.730286
0.595276 0.552887 0.750549
0.683685 0.526581 0.751007
0.735352 0.499207 0.737061
0.211548 0.475708 0.633362
0.223816 0.505005 0.665985
0.233490 0.521271 0.685181
0.254730 0.545288 0.712616
0.329773 0.587372 0.753326
0.493988 0.635101 0.788513
0.643738 0.656647 0.802155
0.740997 0.647491 0.809692
0.800903 0.628113 0.807678
0.261963 0.585236 0.717072
0.277496 0.617157 0.750854
0.287109 0.632416 0.768433
0.321228 0.657288 0.794617
0.438843 0.694122 0.825043
0.580719 0.725769 0.842804
0.690735 0.748505 0.851868
0.788971 0.751221 0.860016
0.857178 0.737732 0.865417
0.317078 0.692902 0.786102
0.337738 0.725616 0.820129
0.352142 0.741669 0.837097
0.395599 0.762695 0.858032
0.521637 0.792542 0.881958
0.655151 0.814636 0.893219
0.752686 0.832550 0.899689
0.834320 0.843323 0.906189
0.907776 0.837433 0.913635
0.387939 0.798584 0.848206
0.417572 0.831146 0.881836
0.444763 0.851227 0.900818
0.490601 0.866699 0.913818
0.593140 0.885986 0.928192
0.715637 0.901947 0.936707
0.810699 0.915863 0.944031
0.885254 0.927399 0.951599
0.952148 0.930511 0.959351
0.479065 0.895630 0.903259
0.522003 0.925201 0.933044
0.574005 0.948608 0.952576
0.638977 0.960999 0.960480
0.724121 0.970245 0.966248
0.810242 0.978790 0.973358
0.884521 0.987640 0.983765
0.948853 0.995483 0.998047
0.999634 0.999969 0.999969
