Assets/Game of Thrones (Kings Landing) - Standard.cube
# Created by Benjamin (IWLTBAP): https://luts.iwltbap.com
# Copyright: (C) Copyright 2019 Triune Films and IWLTBAP SAS
# Cannot be resold, shared or otherwise redistributed
TITLE "Triune Films Fantasy LUTs (Rec.709, sRGB, DCI-P3)"
LUT_3D_SIZE 5
0.001526 0.000122 0.000122
0.089478 0.016174 0.008606
0.280731 0.050659 0.037750
0.513184 0.100952 0.091125
0.786896 0.165039 0.154480
0.094391 0.132904 0.062134
0.223480 0.167877 0.045502
0.413452 0.222595 0.084625
0.628479 0.263153 0.129974
0.877686 0.310944 0.184692
0.252319 0.428436 0.169281
0.398407 0.468140 0.179535
0.542206 0.497345 0.171661
0.723785 0.517059 0.187286
0.953125 0.536926 0.228638
0.462463 0.729919 0.305634
0.556305 0.764526 0.339050
0.679565 0.769379 0.338440
0.799255 0.776031 0.316559
0.984253 0.780518 0.283936
0.585510 0.929657 0.468750
0.650482 0.950562 0.517578
0.765320 0.962006 0.515472
0.891998 0.981781 0.545410
1.000000 1.000000 0.526398
0.018311 0.015839 0.040131
0.081757 0.007019 0.077484
0.270935 0.034363 0.115356
0.507935 0.089294 0.178253
0.788727 0.154419 0.246796
0.085083 0.156281 0.151154
0.181427 0.202698 0.200195
0.424347 0.216492 0.207306
0.633698 0.250610 0.240723
0.880005 0.297333 0.281891
0.208191 0.425629 0.261627
0.347382 0.507233 0.306488
0.549377 0.518921 0.299133
0.728760 0.520233 0.314423
0.959442 0.537262 0.335968
0.380646 0.727600 0.389343
0.509247 0.770477 0.435516
0.673462 0.779602 0.428040
0.801453 0.788696 0.397003
0.984375 0.782379 0.394104
0.555664 0.924316 0.551788
0.633057 0.937256 0.606567
0.762726 0.956512 0.595856
0.890503 0.985779 0.616486
1.000000 1.000000 0.618988
0.048096 0.055023 0.146301
0.062195 0.068268 0.191101
0.200012 0.022125 0.199371
0.440460 0.073700 0.267975
0.729523 0.140717 0.374878
0.084534 0.181122 0.252655
0.124603 0.227173 0.315674
0.355103 0.234619 0.360626
0.583038 0.235016 0.389038
0.840729 0.273163 0.449463
0.181458 0.413300 0.414337
0.236877 0.495483 0.491058
0.530579 0.558167 0.559326
0.720703 0.525574 0.520874
0.947510 0.536652 0.535675
0.324036 0.685181 0.573303
0.434906 0.749939 0.634979
0.672882 0.774872 0.645233
0.794586 0.784851 0.610168
0.984558 0.783966 0.580841
0.502991 0.882996 0.687317
0.608734 0.912354 0.748291
0.774719 0.937439 0.747467
0.893250 0.970734 0.763123
1.000000 1.000000 0.773163
0.077148 0.091461 0.239838
0.091919 0.113922 0.286133
0.165649 0.118958 0.350220
0.330902 0.048279 0.319672
0.603027 0.111359 0.423157
0.113647 0.225677 0.357513
0.128113 0.262177 0.406433
0.294434 0.338318 0.514740
0.511108 0.279327 0.501831
0.733246 0.267181 0.552979
0.195526 0.432404 0.521179
0.223663 0.489349 0.582001
0.450317 0.585632 0.669891
0.685791 0.598206 0.689392
0.883057 0.551147 0.711334
0.302612 0.682434 0.682159
0.353394 0.738586 0.735229
0.587830 0.784607 0.777893
0.787720 0.810150 0.811615
0.969055 0.791779 0.787445
0.477264 0.876801 0.797424
0.573456 0.922577 0.856415
0.767731 0.941620 0.873230
0.904999 0.967682 0.896729
0.999969 0.999481 0.920654
0.106628 0.137482 0.332977
0.127625 0.177307 0.401062
0.158356 0.226898 0.480347
0.372833 0.198792 0.528961
0.481689 0.103088 0.461182
0.151978 0.283813 0.471863
0.164856 0.320160 0.517609
0.226227 0.395386 0.611786
0.537140 0.435577 0.690186
0.650848 0.345032 0.644836
0.211548 0.475708 0.633362
0.233490 0.521271 0.685181
0.329773 0.587372 0.753326
0.643738 0.656647 0.802155
0.800903 0.628113 0.807678
0.317078 0.692902 0.786102
0.352142 0.741669 0.837097
0.521637 0.792542 0.881958
0.752686 0.832550 0.899689
0.907776 0.837433 0.913635
0.479065 0.895630 0.903259
0.574005 0.948608 0.952576
0.724121 0.970245 0.966248
0.884521 0.987640 0.983765
0.999634 0.999969 0.999969
